X: 2766
T: Banks Of The Suir, The
R: waltz
M: 3/4
K: Fmajor
FG|A2 d2 d2|c2 AG FD|D2 CD FG|A2 c2 A>F|G2 F2 [F2C2]|[F4C4]:|
FG|A2 c2 de|f2 df e>c|d>c A2 (3cde|f2 e2 dc|G2 c2 c2|[d4F4] (3cde|
f2 g2 fd|c2 AG FD|A2 c2 AF|G2 F2 [F2C2]|[F4C4]||

